flags/it-52.svg

<svg width="512" height="512" viewBox="0 0 512 512" fill="none" xmlns="http://www.w3.org/2000/svg">
<rect width="512" height="512" fill="var(--flag-palette-white, #eeeeee)"/>
<path d="M0 392H512V440.3H0V392ZM0 79.7002H512V128H0V79.7002Z" fill="var(--flag-palette-bright-red, #d80027)"/>
<path d="M352 264V256L328 232H303.8L288 200C290.122 200 292.157 199.157 293.657 197.657C295.157 196.157 296 194.122 296 192H312V168H272C272 165.878 271.157 163.843 269.657 162.343C268.157 160.843 266.122 160 264 160V176C261.878 176 259.843 176.843 258.343 178.343C256.843 179.843 256 181.878 256 184V214.1C251.603 210.16 245.904 207.987 240 208H176C176 212.243 177.686 216.313 180.686 219.314C183.687 222.314 187.757 224 192 224C192 228.243 193.686 232.313 196.686 235.314C199.687 238.314 203.757 240 208 240C208 242.122 208.843 244.157 210.343 245.657C211.843 247.157 213.878 248 216 248H248C248 250.122 247.157 252.157 245.657 253.657C244.157 255.157 242.122 256 240 256H232C225.635 256 219.53 258.529 215.029 263.029C210.529 267.53 208 273.635 208 280C208 273.635 205.471 267.53 200.971 263.029C196.47 258.529 190.365 256 184 256C179.757 256 175.687 257.686 172.686 260.686C169.686 263.687 168 267.757 168 272V288C168 290.122 167.157 292.157 165.657 293.657C164.157 295.157 162.122 296 160 296H168C172.243 296 176.313 294.314 179.314 291.314C182.314 288.313 184 284.243 184 280C184 277.878 184.843 275.843 186.343 274.343C187.843 272.843 189.878 272 192 272C194.122 272 196.157 272.843 197.657 274.343C199.157 275.843 200 277.878 200 280C200 282.122 200.843 284.157 202.343 285.657C203.843 287.157 205.878 288 208 288H209.4C211.053 292.675 214.113 296.723 218.16 299.588C222.207 302.453 227.042 303.994 232 304V312C232 316.243 233.686 320.313 236.686 323.314C239.687 326.314 243.757 328 248 328L264 344V352H272V344L248 320V312C248 316.243 249.686 320.313 252.686 323.314C255.687 326.314 259.757 328 264 328L280 344V352H288V344L264 320V298.8C277.9 296.3 291.2 289.8 302 279.2L302.6 278.6L328 264L344 280V288H352V280L328 256H312C312 253.8 311.8 251.7 311.4 249.6L328 240L344 256V264H352Z" fill="var(--flag-palette-dark-grey, #818085)"/>
</svg>

<svg xmlns="http://www.w3.org/2000/svg" width="512" height="512" fill="none"><path fill="var(--flag-palette-white, #eeeeee)" d="M0 0h512v512H0z"/><path fill="var(--flag-palette-bright-red, #d80027)" d="M0 392h512v48.3H0zM0 79.7h512V128H0z"/><path fill="var(--flag-palette-dark-grey, #818085)" d="M352 264v-8l-24-24h-24.2L288 200a8 8 0 0 0 8-8h16v-24h-40a8 8 0 0 0-8-8v16a8 8 0 0 0-8 8v30.1c-4.4-4-10.1-6.1-16-6.1h-64a16 16 0 0 0 16 16 16 16 0 0 0 16 16 8 8 0 0 0 8 8h32a8 8 0 0 1-8 8h-8a24 24 0 0 0-24 24 24 24 0 0 0-24-24 16 16 0 0 0-16 16v16a8 8 0 0 1-8 8h8a16 16 0 0 0 16-16 8 8 0 1 1 16 0 8 8 0 0 0 8 8h1.4a24 24 0 0 0 22.6 16v8a16 16 0 0 0 16 16l16 16v8h8v-8l-24-24v-8a16 16 0 0 0 16 16l16 16v8h8v-8l-24-24v-21.2c13.9-2.5 27.2-9 38-19.6l.6-.6L328 264l16 16v8h8v-8l-24-24h-16q0-3.3-.6-6.4L328 240l16 16v8z"/></svg>
